melody-of-light/img/category/category-7.svg

<svg width="20" height="20" viewBox="0 0 20 20" fill="none" xmlns="http://www.w3.org/2000/svg">
<g clip-path="url(#clip0)">
<path d="M7.70605 17.8234H12.2943C13.0723 17.8234 12.9253 16.9881 12.9253 16.0098V15.4184H14.6831C15.0069 15.4184 15.2943 15.3894 15.2943 15.0626C15.2943 14.7358 15.0202 14.647 14.6964 14.647C14.4838 14.647 5.203 14.647 5.3214 14.647C4.99761 14.647 4.70605 14.7061 4.70605 15.0329C4.70605 15.3597 4.98429 15.4184 5.30808 15.4184H7.06589V16.0098C7.06589 16.9881 6.94135 17.8234 7.70605 17.8234Z" fill="#93939F"/>
<path d="M4.21955 8.73456C4.16605 8.37884 4.44153 8.05884 4.80125 8.05884H9.0591C9.38398 8.05884 9.64734 8.3222 9.64734 8.64707V13.353C9.64734 13.6778 9.38398 13.9412 9.0591 13.9412H5.50901C5.21793 13.9412 4.97061 13.7283 4.92732 13.4405L4.21955 8.73456Z" fill="#93939F"/>
<path d="M15.9531 8.73729C16.0085 8.38072 15.7327 8.05884 15.3719 8.05884H10.9408C10.6159 8.05884 10.3525 8.3222 10.3525 8.64707V13.353C10.3525 13.6778 10.6159 13.9412 10.9408 13.9412H14.6415C14.9315 13.9412 15.1783 13.7298 15.2228 13.4432L15.9531 8.73729Z" fill="#93939F"/>
<path d="M16.0312 6.76548C16.0623 7.08886 15.7964 7.35303 15.4715 7.35303C14.4971 7.35303 12.4135 7.35303 10.0005 7.35303C7.58743 7.35303 5.50387 7.35303 4.52943 7.35303C4.20456 7.35303 3.93864 7.08886 3.96976 6.76548C4.26523 3.69498 6.85248 2.35303 10.0005 2.35303C13.1484 2.35303 15.7357 3.69498 16.0312 6.76548Z" fill="#93939F"/>
<path d="M2.88281 7.00009C2.88281 6.80516 3.04083 6.64714 3.23575 6.64714H16.7652C16.9601 6.64714 17.1181 6.80516 17.1181 7.00009C17.1181 7.19501 16.9601 7.35303 16.7652 7.35303H3.23575C3.04083 7.35303 2.88281 7.19501 2.88281 7.00009Z" fill="#93939F"/>
<path d="M11.235 1.73518C11.235 1.73518 10.6951 1.64694 10.0291 1.64694C9.36313 1.64694 8.82324 1.73518 8.82324 1.73518C8.82324 1.06919 9.36313 0.529297 10.0291 0.529297C10.6951 0.529297 11.235 1.06919 11.235 1.73518Z" fill="#93939F"/>
<rect x="9.64746" y="18.5293" width="0.705868" height="1.52941" fill="#93939F"/>
</g>
<defs>
<clipPath id="clip0">
<rect width="20" height="20" fill="white"/>
</clipPath>
</defs>
</svg>

<svg width="20" height="20" fill="none" xmlns="http://www.w3.org/2000/svg"><g clip-path="url(#clip0)" fill="#93939F"><path d="M7.706 17.823h4.588c.778 0 .631-.835.631-1.813v-.592h1.758c.324 0 .611-.029.611-.355 0-.327-.274-.416-.598-.416H5.321c-.323 0-.615.06-.615.386 0 .327.278.385.602.385h1.758v.592c0 .978-.125 1.813.64 1.813zM4.22 8.735a.588.588 0 01.581-.676H9.06c.325 0 .588.263.588.588v4.706a.588.588 0 01-.588.588H5.51a.588.588 0 01-.582-.5L4.22 8.735zm11.733.002a.588.588 0 00-.581-.678H10.94a.588.588 0 00-.589.588v4.706c0 .325.264.588.589.588h3.7c.29 0 .537-.211.582-.498l.73-4.706zm.078-1.972c.031.324-.235.588-.56.588H4.53a.548.548 0 01-.56-.588c.296-3.07 2.883-4.412 6.032-4.412 3.147 0 5.735 1.342 6.03 4.412z"/><path d="M2.883 7c0-.195.158-.353.353-.353h13.53a.353.353 0 010 .706H3.235A.353.353 0 012.883 7zm8.352-5.265s-.54-.088-1.206-.088c-.666 0-1.206.088-1.206.088a1.206 1.206 0 112.412 0zM9.647 18.529h.706v1.529h-.706z"/></g><defs><clipPath id="clip0"><path fill="#fff" d="M0 0h20v20H0z"/></clipPath></defs></svg>
